X:3727
L:1/4
M:3/4
K:C
 c e c | G2 c | (e3 | e3) | e d e | f2 e | (d3 | d3) :| d d d | e2 f | (g3 | g3) | d e f | e2 d | 
 c3 | c3 | c c c | a2 g | g3 | g3 | d e f | e2 d | (c3 | c3) ||

